!!!!SEGMENT: pl-cz--iii-332--009_just-franciszek-kasper--dixit-dominus-de-torrente.krn
!!!cenid: 17xx:914
!!!COM: Just, Franciszek Kasper
!!!COM-rismID: pe30098311
!!!CDT: 1717-1760
!!!CNT: Czech
!!!OPR: Dixit Dominus
!!!OTL: De torrente
!!!OMV: 009
!!!PDT:
!!!AGN: Sacred
!!!SMS-siglum: PL-CZ
!!!SMS-shelfmark: III-332
!!!SMS-shelfwork: 001-009 M
!!!SMS-variant:
!!!SMS-altvar:
!!!NIFC-rismSourceID: 300000542
!!!NIFC-rismChildID: 300000542
!!!NIFC-islandoraID: pl-cz:37699
!!!URL-pdf-islandora: https://repozytorium.nifc.pl/islandora/object/pl-cz%3A37699/datastream/PDF/view
!!!URL-scan: https://polish.musicsources.pl/pl/lokalizacje/galeria/rekopisy/6905/1 @EN{Scan on Polish Music Sources Website} @PL{Skany w portalu Dziedzictwo Muzyki Polskiej w otwartym dostępie}
!!!IIIF:
!!!ONB-nifc: UWAGA: części Dixit Dominus: Dixit Dominus, Virgam virtutis tuae, Dominare in medio, Tecum principium, Juravit Dominus, Tu es sacerdos, Dominus a dextris, Judicabit in nationibus, De torrente, Gloria patri
!!!AIN: 1 alto 2 bass 2 clrno 1 oboe 1 soprn 1 tenor 2 violn
!!!key: A
**kern	**fba	**kern	**dynam	**kern	**dynam	**kern	**kern	**kern	**kern	**kern	**text	**kern	**kern	**kern
*	*	*group3	*	*group3	*	*group2	*group2	*group2	*group2	*group2	*	*group1	*group1	*
*part11	*part11	*part10	*part10	*part9	*part9	*part8	*part7	*part6	*part5	*part4	*part4	*part3	*part2	*part1
*staff11	*	*staff10	*	*staff9	*	*staff8	*staff7	*staff6	*staff5	*staff4	*staff4	*staff3	*staff2	*staff1
*I"Fundamento.	*	*I"Violino Secundo.	*	*I"Violino Primo.	*	*I"Baſso Secundo.	*I"Baſso.	*I"Tenore	*I"Alto.	*I"Canto.	*	*I"Clarino 2do.	*I"Clarino Primo ex D.	*I"Oboa Solo.
*I'fund	*	*I'vl 2	*	*I'vl 1	*	*I'B 2	*I'B	*I'T	*I'A	*I'S	*	*I'clno 2	*I'clno 1	*I'ob
*	*	*Ivioln	*	*Ivioln	*	*Ibass	*Ibass	*Itenor	*Ialto	*Isoprn	*	*Iclrno	*Iclrno	*Ioboe
*	*	*ICstr	*	*ICstr	*	*ICvox	*ICvox	*ICvox	*ICvox	*ICvox	*	*ICbras	*ICbras	*ICww
*IGcont	*	*	*	*	*	*	*	*	*	*	*	*	*	*
*clefF4	*	*clefG2	*	*clefG2	*	*clefF4	*clefF4	*clefC4	*clefC3	*clefC1	*	*clefG2	*clefG2	*clefG2
*	*	*	*	*	*	*	*	*	*	*	*	*ITrd-1c-2	*ITrd-1c-2	*
*k[f#c#g#]	*	*k[f#c#g#]	*	*k[f#c#g#]	*	*k[f#c#g#]	*k[f#c#g#]	*k[f#c#g#]	*k[f#c#g#]	*k[f#c#g#]	*	*k[f#c#g#]	*k[f#c#g#]	*k[f#c#g#]
*A:	*	*A:	*	*A:	*	*A:	*A:	*A:	*A:	*A:	*	*A:	*A:	*A:
*M3/8	*	*M3/8	*	*M3/8	*	*M3/8	*M3/8	*M3/8	*M3/8	*M3/8	*	*M3/8	*M3/8	*M3/8
=1	=1	=1	=1	=1	=1	=1	=1	=1	=1	=1	=1	=1	=1	=1
*clefC4	*	*	*	*	*	*	*	*	*	*	*	*	*	*
*k[f#c#g#]	*	*	*	*	*	*	*	*	*	*	*	*	*	*
!	!	!	!	!	!	!	!	!	!	!LO:TX:t=P:problem=znaki f# cc# g#	!	!	!	!
!	!	!LO:TX:a:i:t=S.	!	!	!	!LO:TX:a:t=P:problem=partia tylko w części "Dominus a dextris"	!LO:TX:a:t=De torrente \ntacet	!LO:TX:a:t=De torrente tacet \nCanto Solo.	!LO:TX:a:t=De torrente tacet \nCanto Solo	!LO:TX:b:t=19.:problem=błędna liczba, pauzy rozpisane na 17 taktów	!	!LO:TX:a:t=De torrente tacet \nSolo Canto	!LO:TX:a:t=De torrente tacet	!LO:TX:a:t=LO:TX:a:t=P:problem=partia tylko w części "Dominus a dextris"
8A\L	.	4.a/	.	4.a/	.	4.ryy	4.ryy	4.ryy	4.ryy	1.r	.	4.ryy	4.ryy	4.ryy
8B\	.	.	.	.	.	.	.	.	.	.	.	.	.	.
8c#\J	6	.	.	.	.	.	.	.	.	.	.	.	.	.
=2	=2	=2	=2	=2	=2	=2	=2	=2	=2	=2	=2	=2	=2	=2
8d\L	.	4.ff#\	.	4.ff#\	.	4.ryy	4.ryy	4.ryy	4.ryy	.	.	4.ryy	4.ryy	4.ryy
8e\	.	.	.	.	.	.	.	.	.	.	.	.	.	.
8f#\J	6	.	.	.	.	.	.	.	.	.	.	.	.	.
=3	=3	=3	=3	=3	=3	=3	=3	=3	=3	=3	=3	=3	=3	=3
4.G#/	6	16ee\LL	.	16ee\LL	.	4.ryy	4.ryy	4.ryy	4.ryy	.	.	4.ryy	4.ryy	4.ryy
.	.	16dd\	.	16dd\	.	.	.	.	.	.	.	.	.	.
.	.	16cc#\	.	16cc#\	.	.	.	.	.	.	.	.	.	.
.	.	16b\	.	16b\	.	.	.	.	.	.	.	.	.	.
.	.	16a\	.	16a\	.	.	.	.	.	.	.	.	.	.
.	.	16g#\JJ	.	16g#X\JJ	.	.	.	.	.	.	.	.	.	.
=4	=4	=4	=4	=4	=4	=4	=4	=4	=4	=4	=4	=4	=4	=4
*clefF4	*	*	*	*	*	*	*	*	*	*	*	*	*	*
*k[f#c#g#]	*	*	*	*	*	*	*	*	*	*	*	*	*	*
!	!	!	!	!LO:TX:t=P:problem=mixed beam	!	!	!	!	!	!	!	!	!	!
8A\L	.	8a/L	.	8a/L	.	4.ryy	4.ryy	4.ryy	4.ryy	.	.	4.ryy	4.ryy	4.ryy
8c#\	.	8e/	.	8e/	.	.	.	.	.	.	.	.	.	.
8A\J	.	8cc#/J	.	8ee\J	.	.	.	.	.	.	.	.	.	.
=5	=5	=5	=5	=5	=5	=5	=5	=5	=5	=5	=5	=5	=5	=5
8d\L	.	8b/	.	8dd\	.	4.ryy	4.ryy	4.ryy	4.ryy	1.r	.	4.ryy	4.ryy	4.ryy
.	.	8qqa/	.	8qqcc#/	.	.	.	.	.	.	.	.	.	.
8e\	.	4g#/	.	4b\	.	.	.	.	.	.	.	.	.	.
8E\J	.	.	.	.	.	.	.	.	.	.	.	.	.	.
=6	=6	=6	=6	=6	=6	=6	=6	=6	=6	=6	=6	=6	=6	=6
8B\L	.	16a/LL	.	16cc#\LL	.	4.ryy	4.ryy	4.ryy	4.ryy	.	.	4.ryy	4.ryy	4.ryy
.	.	16g#/J	.	16b\J	.	.	.	.	.	.	.	.	.	.
16E\L	.	8a/J	.	8a\J	.	.	.	.	.	.	.	.	.	.
16D\	.	.	.	.	.	.	.	.	.	.	.	.	.	.
16C#\	.	8r	.	8r	.	.	.	.	.	.	.	.	.	.
16BB\JJ	.	.	.	.	.	.	.	.	.	.	.	.	.	.
=7	=7	=7	=7	=7	=7	=7	=7	=7	=7	=7	=7	=7	=7	=7
!LO:TX:t=P:problem=mixed beam	!	!	!	!	!	!	!	!	!	!	!	!	!	!
8AA/L	.	32aa\LLL	.	32aa\LLL	.	4.ryy	4.ryy	4.ryy	4.ryy	.	.	4.ryy	4.ryy	4.ryy
.	.	32gg#\	.	32gg#\	.	.	.	.	.	.	.	.	.	.
.	.	32ff#\	.	32ff#\	.	.	.	.	.	.	.	.	.	.
.	.	32ee\JJJ	.	32ee\JJJ	.	.	.	.	.	.	.	.	.	.
8A\	#4 2	16dd#X\LL	.	16dd#X\LL	.	.	.	.	.	.	.	.	.	.
.	.	16dd#\	.	16dd#\	.	.	.	.	.	.	.	.	.	.
8A\J	.	16dd#\	.	16dd#\	.	.	.	.	.	.	.	.	.	.
.	.	16dd#\JJ	.	16dd#\JJ	.	.	.	.	.	.	.	.	.	.
=8	=8	=8	=8	=8	=8	=8	=8	=8	=8	=8	=8	=8	=8	=8
8G#X\L	6_	16ee\LL	.	16ee\LL	.	4.ryy	4.ryy	4.ryy	4.ryy	.	.	4.ryy	4.ryy	4.ryy
!	!	!LO:TX:a:t=P:problem=# above	!	!	!	!	!	!	!	!	!	!	!	!
.	.	16dd#X\JJ	.	16dd#X\JJ	.	.	.	.	.	.	.	.	.	.
8G#\	.	4ee\	.	4ee\	.	.	.	.	.	.	.	.	.	.
8G#\J	.	.	.	.	.	.	.	.	.	.	.	.	.	.
=9	=9	=9	=9	=9	=9	=9	=9	=9	=9	=9	=9	=9	=9	=9
8Gn\L	5 3	32ggn\LLL	.	32ggn\LLL	.	4.ryy	4.ryy	4.ryy	4.ryy	1.r	.	4.ryy	4.ryy	4.ryy
.	.	32ff#\	.	32ff#\	.	.	.	.	.	.	.	.	.	.
.	.	32ee\	.	32ee\	.	.	.	.	.	.	.	.	.	.
.	.	32ddn\JJJ	.	32ddn\JJJ	.	.	.	.	.	.	.	.	.	.
8G\	#4_ 2_	16cc#\LL	.	16cc#\LL	.	.	.	.	.	.	.	.	.	.
.	.	16cc#\	.	16cc#\	.	.	.	.	.	.	.	.	.	.
8G\J	.	16cc#\	.	16cc#\	.	.	.	.	.	.	.	.	.	.
.	X X	16cc#\JJ	.	16cc#\JJ	.	.	.	.	.	.	.	.	.	.
=10	=10	=10	=10	=10	=10	=10	=10	=10	=10	=10	=10	=10	=10	=10
8F#\L	6	16dd\LL	.	16dd\LL	.	4.ryy	4.ryy	4.ryy	4.ryy	.	.	4.ryy	4.ryy	4.ryy
.	.	16cc#\JJ	.	16cc#\JJ	.	.	.	.	.	.	.	.	.	.
8F#\	.	4dd\	.	4dd\	.	.	.	.	.	.	.	.	.	.
8F#\J	.	.	.	.	.	.	.	.	.	.	.	.	.	.
*	*	*	*	*custos:ff	*	*	*	*	*	*	*	*	*	*
!	!	!LO:LB:g=original	!	!LO:LB:g=original	!	!	!	!	!	!	!	!	!	!
=11	=11	=11	=11	=11	=11	=11	=11	=11	=11	=11	=11	=11	=11	=11
8D#X\	6	24ff#\LL	.	24ff#\LL	.	4.ryy	4.ryy	4.ryy	4.ryy	.	.	4.ryy	4.ryy	4.ryy
.	.	24ee\	.	24ee\	.	.	.	.	.	.	.	.	.	.
!	!	!	!	!LO:TX:a:t=P:problem=# above	!	!	!	!	!	!	!	!	!	!
.	.	24dd\JJ	.	24dd#X\JJ	.	.	.	.	.	.	.	.	.	.
8r	.	16b#X\LL	.	16b#X\LL	.	.	.	.	.	.	.	.	.	.
.	.	16b#\	.	16b#\	.	.	.	.	.	.	.	.	.	.
8r	.	16b#\	.	16b#\	.	.	.	.	.	.	.	.	.	.
.	.	16b#\JJ	.	16b#\JJ	.	.	.	.	.	.	.	.	.	.
!LO:LB:g=original	!	!	!	!	!	!	!	!	!	!	!	!	!	!
=12	=12	=12	=12	=12	=12	=12	=12	=12	=12	=12	=12	=12	=12	=12
8C#/	.	24ee\LL	.	24ee\LL	.	4.ryy	4.ryy	4.ryy	4.ryy	.	.	4.ryy	4.ryy	4.ryy
.	.	24dd\	.	24ddn\	.	.	.	.	.	.	.	.	.	.
.	.	24cc#\JJ	.	24cc#\JJ	.	.	.	.	.	.	.	.	.	.
8r	.	16a#X/LL	.	16a#X/LL	.	.	.	.	.	.	.	.	.	.
.	.	16a#/	.	16a#/	.	.	.	.	.	.	.	.	.	.
8r	.	16a#/	.	16a#/	.	.	.	.	.	.	.	.	.	.
.	.	16a#/JJ	.	16a#/JJ	.	.	.	.	.	.	.	.	.	.
=13	=13	=13	=13	=13	=13	=13	=13	=13	=13	=13	=13	=13	=13	=13
8BB/	.	24dd\LL	.	24dd\LL	.	4.ryy	4.ryy	4.ryy	4.ryy	1.r	.	4.ryy	4.ryy	4.ryy
.	.	24cc#\	.	24cc#\	.	.	.	.	.	.	.	.	.	.
.	.	24bn\JJ	.	24b\JJ	.	.	.	.	.	.	.	.	.	.
8r	.	16g#/LL	.	16g#/LL	.	.	.	.	.	.	.	.	.	.
.	.	16g#/	.	16g#/	.	.	.	.	.	.	.	.	.	.
8r	.	16g#/	.	16g#/	.	.	.	.	.	.	.	.	.	.
.	.	16g#/JJ	.	16g#/JJ	.	.	.	.	.	.	.	.	.	.
=14	=14	=14	=14	=14	=14	=14	=14	=14	=14	=14	=14	=14	=14	=14
!LO:TX:t=P:problem=mixed beam	!	!	!	!	!	!	!	!	!	!	!	!	!	!
8AA/L	.	32a\LLL	.	32an\LLL	.	4.ryy	4.ryy	4.ryy	4.ryy	.	.	4.ryy	4.ryy	4.ryy
.	.	32ee\	.	32ee\	.	.	.	.	.	.	.	.	.	.
.	.	32gg#\	.	32gg#\	.	.	.	.	.	.	.	.	.	.
.	.	32aa\JJJ	.	32aa\JJJ	.	.	.	.	.	.	.	.	.	.
8A\	.	8cc#\L	.	8ee\L	.	.	.	.	.	.	.	.	.	.
8G#\J	.	8b\J	.	8dd\J	.	.	.	.	.	.	.	.	.	.
=15	=15	=15	=15	=15	=15	=15	=15	=15	=15	=15	=15	=15	=15	=15
8A\L	.	16a/LL	.	16cc#\LL	.	4.ryy	4.ryy	4.ryy	4.ryy	.	.	4.ryy	4.ryy	4.ryy
.	.	16b/JJ	.	16dd\JJ	.	.	.	.	.	.	.	.	.	.
8d\	.	8a/L	.	8cc#\L	.	.	.	.	.	.	.	.	.	.
8e\J	.	8g#/J	.	8b\J	.	.	.	.	.	.	.	.	.	.
=16	=16	=16	=16	=16	=16	=16	=16	=16	=16	=16	=16	=16	=16	=16
8A\L	.	16A/LL	.	16a/LL	.	4.ryy	4.ryy	4.ryy	4.ryy	.	.	4.ryy	4.ryy	4.ryy
.	.	16B/JJ	.	16d/JJ	.	.	.	.	.	.	.	.	.	.
8D\	.	8A/L	.	8c#/L	.	.	.	.	.	.	.	.	.	.
!	!	!LO:TX:b:t=P:problem=# below	!	!	!	!	!	!	!	!	!	!	!	!
8E\J	.	8G#X/J	.	8B/J	.	.	.	.	.	.	.	.	.	.
=17	=17	=17	=17	=17	=17	=17	=17	=17	=17	=17	=17	=17	=17	=17
8AA'>/L	.	4A/	.	4A/	.	4.ryy	4.ryy	4.ryy	4.ryy	4.r	.	4.ryy	4.ryy	4.ryy
8C#'>/	.	.	.	.	.	.	.	.	.	.	.	.	.	.
8E'>/J	.	8r	.	8r	.	.	.	.	.	.	.	.	.	.
=18	=18	=18	=18	=18	=18	=18	=18	=18	=18	=18	=18	=18	=18	=18
*clefC4	*	*	*	*	*	*	*	*	*	*	*	*	*	*
*k[f#c#g#]	*	*	*	*	*	*	*	*	*	*	*	*	*	*
!LO:TX:a:i:rj:t=Canto	!	!	!	!	!	!	!	!	!	!	!	!	!	!
!	!	!	!LO:DY:a	!	!LO:DY:a	!	!	!	!	!LO:TX:a:i:t=Solo	!	!	!	!
8A\L	.	4.a/	p	4.a/	p	4.ryy	4.ryy	4.ryy	4.ryy	4.a\	De	4.ryy	4.ryy	4.ryy
8B\	.	.	.	.	.	.	.	.	.	.	.	.	.	.
8c#\J	6	.	.	.	.	.	.	.	.	.	.	.	.	.
=19	=19	=19	=19	=19	=19	=19	=19	=19	=19	=19	=19	=19	=19	=19
8d\L	.	4.ff#\	.	4.ff#\	.	4.ryy	4.ryy	4.ryy	4.ryy	4.ff#\	tor-	4.ryy	4.ryy	4.ryy
8e\	.	.	.	.	.	.	.	.	.	.	.	.	.	.
8f#\J	6	.	.	.	.	.	.	.	.	.	.	.	.	.
=20	=20	=20	=20	=20	=20	=20	=20	=20	=20	=20	=20	=20	=20	=20
4.G#/	6	16ee\LL	.	16ee\LL	.	4.ryy	4.ryy	4.ryy	4.ryy	16ee\LL	-ren-	4.ryy	4.ryy	4.ryy
.	.	16dd\	.	16dd\	.	.	.	.	.	16dd\	.	.	.	.
.	.	16cc#\	.	16cc#\	.	.	.	.	.	16cc#\	.	.	.	.
.	.	16b\	.	16b\	.	.	.	.	.	16b\	.	.	.	.
.	.	16a\	.	16a\	.	.	.	.	.	(16a\	.	.	.	.
.	.	16g#\JJ	.	16g#\JJ	.	.	.	.	.	16g#\JJ	.	.	.	.
!	!	!LO:LB:g=original	!	!	!	!	!	!	!	!	!	!	!	!
=21	=21	=21	=21	=21	=21	=21	=21	=21	=21	=21	=21	=21	=21	=21
!	!	!	!	!LO:TX:t=P:problem=mixed beam	!	!	!	!	!	!	!	!	!	!
8A\L	.	8a/L	.	8a/L	.	4.ryy	4.ryy	4.ryy	4.ryy	8a\)	.	4.ryy	4.ryy	4.ryy
8c#\	.	8e/	.	8e/	.	.	.	.	.	8e/	-te	.	.	.
8A\J	.	8cc#/J	.	8ee\J	.	.	.	.	.	8ee\	in	.	.	.
!	!	!	!	!LO:LB:g=original	!	!	!	!	!	!	!	!	!	!
=22	=22	=22	=22	=22	=22	=22	=22	=22	=22	=22	=22	=22	=22	=22
!LO:TX:t=P:problem=mixed beam	!	!	!	!	!	!	!	!	!	!	!	!	!	!
8d\L	.	8b/	.	8dd\	.	4.ryy	4.ryy	4.ryy	4.ryy	8dd\	vi-	4.ryy	4.ryy	4.ryy
.	.	8qqa/	.	8qqcc#/	.	.	.	.	.	8qqcc#/	.	.	.	.
8e\	.	4g#/	.	4b\	.	.	.	.	.	4b\	-a	.	.	.
8E/J	.	.	.	.	.	.	.	.	.	.	.	.	.	.
=23	=23	=23	=23	=23	=23	=23	=23	=23	=23	=23	=23	=23	=23	=23
8A\L	.	16a/LL	.	16cc#\LL	.	4.ryy	4.ryy	4.ryy	4.ryy	16cc#\LL	bi-	4.ryy	4.ryy	4.ryy
.	.	16g#/J	.	16b\J	.	.	.	.	.	16b\JJ	.	.	.	.
8c#\	.	8a/J	.	8a\J	.	.	.	.	.	8a\	-bet	.	.	.
8B\J	.	8r	.	8r	.	.	.	.	.	8r	.	.	.	.
=24	=24	=24	=24	=24	=24	=24	=24	=24	=24	=24	=24	=24	=24	=24
*clefF4	*	*	*	*	*	*	*	*	*	*	*	*	*	*
*k[f#c#g#]	*	*	*	*	*	*	*	*	*	*	*	*	*	*
8A\L	.	8cc#\L	.	8ee\L	.	4.ryy	4.ryy	4.ryy	4.ryy	8cc#\	prop-	4.ryy	4.ryy	4.ryy
8A\	.	8cc#\	.	8ee\	.	.	.	.	.	8ee\	-ter-	.	.	.
8A\J	.	8cc#\J	.	8ee\J	.	.	.	.	.	8cc#\	-e-	.	.	.
*custos:G	*	*	*	*	*	*	*	*	*	*	*	*	*	*
!LO:LB:g=original	!	!	!	!	!	!	!	!	!	!	!	!	!	!
=25	=25	=25	=25	=25	=25	=25	=25	=25	=25	=25	=25	=25	=25	=25
8G#\L	6	8b\L	.	16b\LL	.	4.ryy	4.ryy	4.ryy	4.ryy	4.b\	-a	4.ryy	4.ryy	4.ryy
.	.	.	.	16dd#X\JJ	.	.	.	.	.	.	.	.	.	.
8G#\	.	8b\	.	4ee\	.	.	.	.	.	.	.	.	.	.
8G#\J	.	8b\J	.	.	.	.	.	.	.	.	.	.	.	.
=26	=26	=26	=26	=26	=26	=26	=26	=26	=26	=26	=26	=26	=26	=26
8F#\L	.	8a/L	.	8a/L	.	4.ryy	4.ryy	4.ryy	4.ryy	8a\L	e-	4.ryy	4.ryy	4.ryy
8D#X\	6	8b/	.	8g#/	.	.	.	.	.	8g#\J	.	.	.	.
8BB\J	.	8a/J	.	8f#/J	.	.	.	.	.	8f#/	-xal-	.	.	.
=27	=27	=27	=27	=27	=27	=27	=27	=27	=27	=27	=27	=27	=27	=27
8E\L	.	16g#\LL	.	16g#\LL	.	4.ryy	4.ryy	4.ryy	4.ryy	16g#\LL	-ta-	4.ryy	4.ryy	4.ryy
.	.	16dd#X\JJ	.	16dd#X\JJ	.	.	.	.	.	16dd#X\JJ	.	.	.	.
8E\	.	4ee\	.	4ee\	.	.	.	.	.	4ee\	.	.	.	.
8G#\J	.	.	.	.	.	.	.	.	.	.	.	.	.	.
=28	=28	=28	=28	=28	=28	=28	=28	=28	=28	=28	=28	=28	=28	=28
8A\L	.	4cc#\	.	8cc#\L	.	4.ryy	4.ryy	4.ryy	4.ryy	8cc#\L	.	4.ryy	4.ryy	4.ryy
8G#\	.	.	.	8b\	.	.	.	.	.	8b\	.	.	.	.
8F#\J	.	8dd#X\	.	8a\J	.	.	.	.	.	8a\J	.	.	.	.
!	!	!	!	!	!	!	!	!	!	!LO:LB:g=original	!	!	!	!
=29	=29	=29	=29	=29	=29	=29	=29	=29	=29	=29	=29	=29	=29	=29
8E\L	.	8ee\L	.	8gg#\L	.	4.ryy	4.ryy	4.ryy	4.ryy	8gg#\L	.	4.ryy	4.ryy	4.ryy
8F#\	.	16dd#X\L	.	16ff#\L	.	.	.	.	.	16ff#\L	.	.	.	.
.	.	16cc#\	.	16ee\	.	.	.	.	.	16ee\	.	.	.	.
8G#\J	.	16b\	.	16dd#X\	.	.	.	.	.	16dd#X\	.	.	.	.
.	.	16a\JJ	.	16cc#\JJ	.	.	.	.	.	16cc#\JJ	.	.	.	.
=30	=30	=30	=30	=30	=30	=30	=30	=30	=30	=30	=30	=30	=30	=30
!LO:TX:t=P:problem=mixed beam	!	!	!	!	!	!	!	!	!	!	!	!	!	!
8A\L	.	8e/L	.	16b\LL	.	4.ryy	4.ryy	4.ryy	4.ryy	16b\LL	-bit	4.ryy	4.ryy	4.ryy
.	.	.	.	16ee\JJ	.	.	.	.	.	16a\JJ	.	.	.	.
8B\	6 4	8e/	.	8g#/L	.	.	.	.	.	8g#/L	ca-	.	.	.
8BB/J	5 #	8d#X/J	.	8f#/J	.	.	.	.	.	8f#/J	.	.	.	.
=31	=31	=31	=31	=31	=31	=31	=31	=31	=31	=31	=31	=31	=31	=31
!	!	!	!LO:DY:a	!	!LO:DY:a:rj	!	!	!	!	!	!	!	!	!
8E\L	.	4.ee\	f	4.ee\	f	4.ryy	4.ryy	4.ryy	4.ryy	4.e/	-put	4.ryy	4.ryy	4.ryy
8F#\	.	.	.	.	.	.	.	.	.	.	.	.	.	.
8G#\J	6	.	.	.	.	.	.	.	.	.	.	.	.	.
=32	=32	=32	=32	=32	=32	=32	=32	=32	=32	=32	=32	=32	=32	=32
!	!	!	!	!	!	!	!	!	!	!LO:TX:a:t=7.	!	!	!	!
8A\L	.	4.ccc#\	.	4.ccc#\	.	4.ryy	4.ryy	4.ryy	4.ryy	1.r	.	4.ryy	4.ryy	4.ryy
8B\	.	.	.	.	.	.	.	.	.	.	.	.	.	.
8c#\J	6	.	.	.	.	.	.	.	.	.	.	.	.	.
=33	=33	=33	=33	=33	=33	=33	=33	=33	=33	=33	=33	=33	=33	=33
4D#X\	6	16bb\LL	.	16bb\LL	.	4.ryy	4.ryy	4.ryy	4.ryy	.	.	4.ryy	4.ryy	4.ryy
.	.	16aa\	.	16aa\	.	.	.	.	.	.	.	.	.	.
.	.	16gg#\	.	16gg#\	.	.	.	.	.	.	.	.	.	.
.	.	16ff#\	.	16ff#\	.	.	.	.	.	.	.	.	.	.
8D#\	.	16ee\	.	16ee\	.	.	.	.	.	.	.	.	.	.
!	!	!LO:TX:a:t=P:problem=# above	!	!	!	!	!	!	!	!	!	!	!	!
.	.	16dd#X\JJ	.	16dd#X\JJ	.	.	.	.	.	.	.	.	.	.
=34	=34	=34	=34	=34	=34	=34	=34	=34	=34	=34	=34	=34	=34	=34
8E\L	.	8ee\L	.	8ee\L	.	4.ryy	4.ryy	4.ryy	4.ryy	.	.	4.ryy	4.ryy	4.ryy
8G#\	6	8b\	.	8b\	.	.	.	.	.	.	.	.	.	.
8E\J	.	8ee\J	.	8gg#\J	.	.	.	.	.	.	.	.	.	.
!	!	!LO:LB:g=original	!	!	!	!	!	!	!	!	!	!	!	!
=35	=35	=35	=35	=35	=35	=35	=35	=35	=35	=35	=35	=35	=35	=35
!LO:TX:t=P:problem=mixed beam	!	!	!	!	!	!	!	!	!	!	!	!	!	!
8A\L	.	8ff#\	.	8aa\	.	4.ryy	4.ryy	4.ryy	4.ryy	.	.	4.ryy	4.ryy	4.ryy
.	.	8qqee/	.	8qqgg#/	.	.	.	.	.	.	.	.	.	.
8B\	#	4dd#X\	.	4ff#\	.	.	.	.	.	.	.	.	.	.
8BB/J	.	.	.	.	.	.	.	.	.	.	.	.	.	.
!	!	!	!	!LO:LB:g=original	!	!	!	!	!	!	!	!	!	!
=36	=36	=36	=36	=36	=36	=36	=36	=36	=36	=36	=36	=36	=36	=36
!	!	!LO:TX:t=P:problem=mixed beam	!	!	!	!	!	!	!	!	!	!	!	!
8E\L	.	8ee\L	.	8gg#\L	.	4.ryy	4.ryy	4.ryy	4.ryy	2.r	.	4.ryy	4.ryy	4.ryy
8F#\	.	8b\	.	8ee\	.	.	.	.	.	.	.	.	.	.
8G#\J	.	8e/J	.	8b\J	.	.	.	.	.	.	.	.	.	.
=37	=37	=37	=37	=37	=37	=37	=37	=37	=37	=37	=37	=37	=37	=37
!LO:TX:t=P:problem=mixed beam	!	!	!	!	!	!	!	!	!	!	!	!	!	!
8A\L	.	8f#/	.	8a/	.	4.ryy	4.ryy	4.ryy	4.ryy	.	.	4.ryy	4.ryy	4.ryy
.	.	8qqe/	.	8qqg#/	.	.	.	.	.	.	.	.	.	.
8B\	#	4d#X/	.	4f#/	.	.	.	.	.	.	.	.	.	.
8BB/J	.	.	.	.	.	.	.	.	.	.	.	.	.	.
=38	=38	=38	=38	=38	=38	=38	=38	=38	=38	=38	=38	=38	=38	=38
8E\L	.	4e/	.	4e/	.	4.ryy	4.ryy	4.ryy	4.ryy	4.r	.	4.ryy	4.ryy	4.ryy
8E\	.	.	.	.	.	.	.	.	.	.	.	.	.	.
8Dn\J	.	8r	.	8r	.	.	.	.	.	.	.	.	.	.
!LO:LB:g=original	!	!	!	!	!	!	!	!	!	!	!	!	!	!
=39	=39	=39	=39	=39	=39	=39	=39	=39	=39	=39	=39	=39	=39	=39
!	!	!	!LO:DY:a	!	!LO:DY:a	!	!	!	!	!	!	!	!	!
16A\LL	.	16cc#\LL	p	16cc#\LL	p	4.ryy	4.ryy	4.ryy	4.ryy	16cc#\LL	pro-	4.ryy	4.ryy	4.ryy
16B\JJ	.	16ddn\JJ	.	16ee\JJ	.	.	.	.	.	16ddn\JJ	.	.	.	.
8c#\L	.	4ee\	.	4aa\	.	.	.	.	.	4ee\	.	.	.	.
8A\J	.	.	.	.	.	.	.	.	.	.	.	.	.	.
=40	=40	=40	=40	=40	=40	=40	=40	=40	=40	=40	=40	=40	=40	=40
8B\L	.	16dd\LL	.	16gg#\LL	.	4.ryy	4.ryy	4.ryy	4.ryy	16dd\	-pte-	4.ryy	4.ryy	4.ryy
.	.	16cc#\JJ	.	16ff#\JJ	.	.	.	.	.	16cc#\	-re-	.	.	.
8G#\	5	4dd\	.	4gg#\	.	.	.	.	.	4dd\	-a	.	.	.
8E\J	.	.	.	.	.	.	.	.	.	.	.	.	.	.
=41	=41	=41	=41	=41	=41	=41	=41	=41	=41	=41	=41	=41	=41	=41
!LO:TX:t=P:problem=mixed beam	!	!	!	!	!	!	!	!	!	!	!	!	!	!
8A\L	.	16a\LL	.	16cc#\LL	.	4.ryy	4.ryy	4.ryy	4.ryy	16cc#\LL	e-	4.ryy	4.ryy	4.ryy
.	.	16cc#\JJ	.	16ee\JJ	.	.	.	.	.	16ee\JJ	.	.	.	.
!	!	!	!	!LO:TX:a:t=P:problem=♮ above	!	!	!	!	!	!	!	!	!	!
8BB/	.	8b/L	.	8ddn\L	.	.	.	.	.	8dd\	.	.	.	.
8C#/J	6	8a/J	.	8cc#\J	.	.	.	.	.	8cc#\	-xal-	.	.	.
=42	=42	=42	=42	=42	=42	=42	=42	=42	=42	=42	=42	=42	=42	=42
8E\L	6 4	8a/L	.	8cc#\L	.	4.ryy	4.ryy	4.ryy	4.ryy	8cc#\	-ta-	4.ryy	4.ryy	4.ryy
8G#\	6	8g#/J	.	8b\J	.	.	.	.	.	8b\	-bit	.	.	.
8E\J	.	8r	.	8r	.	.	.	.	.	8r	.	.	.	.
=43	=43	=43	=43	=43	=43	=43	=43	=43	=43	=43	=43	=43	=43	=43
4A\	.	4cc#\	.	16a\LL	.	4.ryy	4.ryy	4.ryy	4.ryy	16a\LL	e-	4.ryy	4.ryy	4.ryy
.	.	.	.	16ee\	.	.	.	.	.	16ee\	.	.	.	.
.	.	.	.	16dd\	.	.	.	.	.	16dd\	.	.	.	.
.	.	.	.	16cc#\	.	.	.	.	.	16cc#\	.	.	.	.
8r	.	8r	.	16b\	.	.	.	.	.	16b\	.	.	.	.
.	.	.	.	16a\JJ	.	.	.	.	.	16a\JJ	.	.	.	.
=44	=44	=44	=44	=44	=44	=44	=44	=44	=44	=44	=44	=44	=44	=44
4D/	.	4a/	.	16a\LL	.	4.ryy	4.ryy	4.ryy	4.ryy	16a\LL	-xal-	4.ryy	4.ryy	4.ryy
.	.	.	.	16ff#\	.	.	.	.	.	16ff#\	.	.	.	.
.	.	.	.	16ee\	.	.	.	.	.	16ee\	.	.	.	.
.	.	.	.	16dd\	.	.	.	.	.	16dd\	.	.	.	.
8r	.	8r	.	16cc#\	.	.	.	.	.	16cc#\	.	.	.	.
.	.	.	.	16b\JJ	.	.	.	.	.	16b\JJ	.	.	.	.
=45	=45	=45	=45	=45	=45	=45	=45	=45	=45	=45	=45	=45	=45	=45
4C#/	.	4a/	.	8ee\L	.	4.ryy	4.ryy	4.ryy	4.ryy	8ee\L	-ta-	4.ryy	4.ryy	4.ryy
.	.	.	.	16dd\L	.	.	.	.	.	16dd\L	.	.	.	.
.	.	.	.	16cc#\	.	.	.	.	.	16cc#\	.	.	.	.
8r	.	8r	.	16b\	.	.	.	.	.	16b\	.	.	.	.
.	.	.	.	16a\JJ	.	.	.	.	.	16a\JJ	.	.	.	.
!	!	!	!	!	!	!	!	!	!	!LO:LB:g=original	!	!	!	!
=46	=46	=46	=46	=46	=46	=46	=46	=46	=46	=46	=46	=46	=46	=46
4BB/	.	4g#/	.	8dd\L	.	4.ryy	4.ryy	4.ryy	4.ryy	8dd\L	.	4.ryy	4.ryy	4.ryy
.	.	.	.	16cc#\L	.	.	.	.	.	16cc#\L	.	.	.	.
.	.	.	.	16b\	.	.	.	.	.	16b\	.	.	.	.
8r	.	8r	.	16a\	.	.	.	.	.	16a\	.	.	.	.
.	.	.	.	16g#\JJ	.	.	.	.	.	16g#\JJ	.	.	.	.
=47	=47	=47	=47	=47	=47	=47	=47	=47	=47	=47	=47	=47	=47	=47
8AA/L	.	16a\LL	.	16a\LL	.	4.ryy	4.ryy	4.ryy	4.ryy	16a\LL	.	4.ryy	4.ryy	4.ryy
.	.	16b\	.	16b\	.	.	.	.	.	16b\	.	.	.	.
8C#/	.	16cc#\	.	16cc#\	.	.	.	.	.	16cc#\	.	.	.	.
.	.	16dd\	.	16dd\	.	.	.	.	.	16dd\	.	.	.	.
8BB/J	.	16ee\	.	16ee\	.	.	.	.	.	16ee\	.	.	.	.
.	.	16ff#\JJ	.	16ff#\JJ	.	.	.	.	.	16ff#\JJ	.	.	.	.
!	!	!LO:LB:g=original	!	!LO:LB:g=original	!	!	!	!	!	!	!	!	!	!
=48	=48	=48	=48	=48	=48	=48	=48	=48	=48	=48	=48	=48	=48	=48
8AA/L	.	8ee\L	.	8ee\L	.	4.ryy	4.ryy	4.ryy	4.ryy	8ee\L	.	4.ryy	4.ryy	4.ryy
8BB/	6\	8g#\	.	8g#\	.	.	.	.	.	8g#\	.	.	.	.
8C#/J	6	8a\J	.	8a\J	.	.	.	.	.	8a\J	.	.	.	.
=49	=49	=49	=49	=49	=49	=49	=49	=49	=49	=49	=49	=49	=49	=49
!LO:TX:t=P:problem=mixed beam	!	!	!	!	!	!	!	!	!	!	!	!	!	!
8D\L	.	8f#/L	.	24dd\LL	.	4.ryy	4.ryy	4.ryy	4.ryy	8dd\	-bit	4.ryy	4.ryy	4.ryy
.	.	.	.	24cc#\	.	.	.	.	.	.	.	.	.	.
.	.	.	.	24b\JJ	.	.	.	.	.	.	.	.	.	.
.	.	.	.	.	.	.	.	.	.	8qqcc#/	.	.	.	.
8E\	.	8e/	.	4bT\	.	.	.	.	.	4bT\	ca-	.	.	.
8EE/J	.	8d/J	.	.	.	.	.	.	.	.	.	.	.	.
=50	=50	=50	=50	=50	=50	=50	=50	=50	=50	=50	=50	=50	=50	=50
*	*	*Xtuplet	*	*	*	*	*	*	*	*	*	*	*	*
8A\L	.	24aa\LL	.	24aa\LL	.	4.ryy	4.ryy	4.ryy	4.ryy	4a\	-put	4.ryy	4.ryy	4.ryy
.	.	24ee\	.	24ee\	.	.	.	.	.	.	.	.	.	.
.	.	24cc#\JJ	.	24cc#\JJ	.	.	.	.	.	.	.	.	.	.
8c#\	.	(16a'/LL	.	(16a'/LL	.	.	.	.	.	.	.	.	.	.
.	.	16a'/	.	16a'/	.	.	.	.	.	.	.	.	.	.
8A\J	.	16a'/	.	16a'/	.	.	.	.	.	8r	.	.	.	.
.	.	16a'/JJ)	.	16a'/JJ)	.	.	.	.	.	.	.	.	.	.
=51	=51	=51	=51	=51	=51	=51	=51	=51	=51	=51	=51	=51	=51	=51
*	*	*tuplet	*	*	*	*	*	*	*	*	*	*	*	*
8D/	.	24ff#\LL	.	24ff#\LL	.	4.ryy	4.ryy	4.ryy	4.ryy	4.ff#\	e-	4.ryy	4.ryy	4.ryy
.	.	24ee\	.	24ee\	.	.	.	.	.	.	.	.	.	.
.	.	24dd\JJ	.	24dd\JJ	.	.	.	.	.	.	.	.	.	.
8r	.	(16b#X'\LL	.	16b#X\LL	.	.	.	.	.	.	.	.	.	.
.	.	16b#'\	.	16b#\	.	.	.	.	.	.	.	.	.	.
8r	.	16b#'\	.	16b#\	.	.	.	.	.	.	.	.	.	.
.	.	16b#'\JJ)	.	16b#\JJ	.	.	.	.	.	.	.	.	.	.
!LO:LB:g=original	!	!	!	!	!	!	!	!	!	!	!	!	!	!
=52	=52	=52	=52	=52	=52	=52	=52	=52	=52	=52	=52	=52	=52	=52
8C#/	.	24ee\LL	.	24ee\LL	.	4.ryy	4.ryy	4.ryy	4.ryy	4.ee\	-xal-	4.ryy	4.ryy	4.ryy
.	.	24dd\	.	24dd\	.	.	.	.	.	.	.	.	.	.
.	.	24cc#\JJ	.	24cc#\JJ	.	.	.	.	.	.	.	.	.	.
8r	.	(16a#X'/LL	.	(16a#X'/LL	.	.	.	.	.	.	.	.	.	.
.	.	16a#'/	.	16a#'/	.	.	.	.	.	.	.	.	.	.
8r	.	16a#'/	.	16a#'/	.	.	.	.	.	.	.	.	.	.
.	.	16a#'/JJ)	.	16a#'/JJ)	.	.	.	.	.	.	.	.	.	.
=53	=53	=53	=53	=53	=53	=53	=53	=53	=53	=53	=53	=53	=53	=53
*	*	*	*	*Xtuplet	*	*	*	*	*	*	*	*	*	*
8BB/	.	24dd\LL	.	24dd\LL	.	4.ryy	4.ryy	4.ryy	4.ryy	4.dd\	-ta-	4.ryy	4.ryy	4.ryy
.	.	24cc#\	.	24cc#\	.	.	.	.	.	.	.	.	.	.
.	.	24bn\JJ	.	24b\JJ	.	.	.	.	.	.	.	.	.	.
8r	.	(16g#'/LL	.	16g#/LL	.	.	.	.	.	.	.	.	.	.
.	.	16g#'/	.	16g#/	.	.	.	.	.	.	.	.	.	.
8r	.	16g#'/	.	16g#/	.	.	.	.	.	.	.	.	.	.
.	.	16g#'/JJ)	.	16g#/JJ	.	.	.	.	.	.	.	.	.	.
=54	=54	=54	=54	=54	=54	=54	=54	=54	=54	=54	=54	=54	=54	=54
8AA/L	.	16a\LL	.	8aa\L	.	4.ryy	4.ryy	4.ryy	4.ryy	8aa\L	.	4.ryy	4.ryy	4.ryy
.	.	16ff#\	.	.	.	.	.	.	.	.	.	.	.	.
8BB/	.	16ee\	.	16gg#\L	.	.	.	.	.	16gg#X\L	.	.	.	.
.	.	16dd\	.	16ff#\	.	.	.	.	.	16ff#\	.	.	.	.
8C#/J	.	16cc#\	.	16ee\	.	.	.	.	.	16ee\	.	.	.	.
.	.	16b\JJ	.	16dd\JJ	.	.	.	.	.	16dd\JJ	.	.	.	.
=55	=55	=55	=55	=55	=55	=55	=55	=55	=55	=55	=55	=55	=55	=55
*	*	*	*	*tuplet	*	*	*	*	*	*	*	*	*	*
!LO:TX:t=P:problem=mixed beam	!	!	!	!	!	!	!	!	!	!	!	!	!	!
8D\L	.	16a/LL	.	24cc#\LL	.	4.ryy	4.ryy	4.ryy	4.ryy	24cc#\LL	-bit	4.ryy	4.ryy	4.ryy
.	.	.	.	24b\	.	.	.	.	.	24b\	.	.	.	.
.	.	16b/JJ	.	.	.	.	.	.	.	.	.	.	.	.
.	.	.	.	24a\JJ	.	.	.	.	.	24a\JJ	.	.	.	.
8E\	4	8a/L	.	4bT\	.	.	.	.	.	4bT\	ca-	.	.	.
8EE/J	#	8g#/J	.	.	.	.	.	.	.	.	.	.	.	.
=56	=56	=56	=56	=56	=56	=56	=56	=56	=56	=56	=56	=56	=56	=56
8AA'/L	.	4a/	.	4a/	.	4.ryy	4.ryy	4.ryy	4.ryy	4a\	-put.	4.ryy	4.ryy	4.ryy
8C#'/	.	.	.	.	.	.	.	.	.	.	.	.	.	.
8E'/J	.	8r	.	8r	.	.	.	.	.	8r	.	.	.	.
!	!	!LO:LB:g=original	!	!	!	!	!	!	!	!	!	!	!	!
=57	=57	=57	=57	=57	=57	=57	=57	=57	=57	=57	=57	=57	=57	=57
*clefC4	*	*	*	*	*	*	*	*	*	*	*	*	*	*
*k[f#c#g#]	*	*	*	*	*	*	*	*	*	*	*	*	*	*
!	!	!	!	!	!LO:DY:a	!	!	!	!	!LO:TX:a:t=17.	!	!	!	!
8A\L	.	4.a/	.	4.a/	f	4.ryy	4.ryy	4.ryy	4.ryy	1.r	.	4.ryy	4.ryy	4.ryy
8B\	.	.	.	.	.	.	.	.	.	.	.	.	.	.
8c#\J	6	.	.	.	.	.	.	.	.	.	.	.	.	.
!	!	!	!	!LO:LB:g=original	!	!	!	!	!	!	!	!	!	!
=58	=58	=58	=58	=58	=58	=58	=58	=58	=58	=58	=58	=58	=58	=58
8d\L	.	4.ff#\	.	4.ff#\	.	4.ryy	4.ryy	4.ryy	4.ryy	.	.	4.ryy	4.ryy	4.ryy
8e\	.	.	.	.	.	.	.	.	.	.	.	.	.	.
8f#\J	6	.	.	.	.	.	.	.	.	.	.	.	.	.
=59	=59	=59	=59	=59	=59	=59	=59	=59	=59	=59	=59	=59	=59	=59
4G#/	6	16ee\LL	.	16ee\LL	.	4.ryy	4.ryy	4.ryy	4.ryy	.	.	4.ryy	4.ryy	4.ryy
.	.	16dd\	.	16dd\	.	.	.	.	.	.	.	.	.	.
.	.	16cc#\	.	16cc#\	.	.	.	.	.	.	.	.	.	.
.	.	16b\	.	16b\	.	.	.	.	.	.	.	.	.	.
8r	.	16a\	.	16a\	.	.	.	.	.	.	.	.	.	.
.	.	16g#\JJ	.	16g#\JJ	.	.	.	.	.	.	.	.	.	.
=60	=60	=60	=60	=60	=60	=60	=60	=60	=60	=60	=60	=60	=60	=60
!	!	!	!	!LO:TX:t=P:problem=mixed beam	!	!	!	!	!	!	!	!	!	!
8A\L	.	8a/L	.	8a/L	.	4.ryy	4.ryy	4.ryy	4.ryy	.	.	4.ryy	4.ryy	4.ryy
8c#\	.	8e/	.	8e/	.	.	.	.	.	.	.	.	.	.
8A\J	.	8cc#/J	.	8ee\J	.	.	.	.	.	.	.	.	.	.
=61	=61	=61	=61	=61	=61	=61	=61	=61	=61	=61	=61	=61	=61	=61
!LO:TX:t=P:problem=mixed beam	!	!	!	!	!	!	!	!	!	!	!	!	!	!
8d\L	.	8b/	.	8dd\	.	4.ryy	4.ryy	4.ryy	4.ryy	1.r	.	4.ryy	4.ryy	4.ryy
.	.	8qqa/	.	8qqcc#/	.	.	.	.	.	.	.	.	.	.
8e\	#	4g#/	.	4b\	.	.	.	.	.	.	.	.	.	.
8E/J	.	.	.	.	.	.	.	.	.	.	.	.	.	.
=62	=62	=62	=62	=62	=62	=62	=62	=62	=62	=62	=62	=62	=62	=62
*clefF4	*	*	*	*	*	*	*	*	*	*	*	*	*	*
*k[f#c#g#]	*	*	*	*	*	*	*	*	*	*	*	*	*	*
8A\L	.	16a/LL	.	16cc#\LL	.	4.ryy	4.ryy	4.ryy	4.ryy	.	.	4.ryy	4.ryy	4.ryy
.	.	16g#/J	.	16b\J	.	.	.	.	.	.	.	.	.	.
16E\L	.	8a/J	.	8a\J	.	.	.	.	.	.	.	.	.	.
16D\	.	.	.	.	.	.	.	.	.	.	.	.	.	.
16C#\	.	8r	.	8r	.	.	.	.	.	.	.	.	.	.
16BB\JJ	.	.	.	.	.	.	.	.	.	.	.	.	.	.
!LO:LB:g=original	!	!	!	!	!	!	!	!	!	!	!	!	!	!
=63	=63	=63	=63	=63	=63	=63	=63	=63	=63	=63	=63	=63	=63	=63
!LO:TX:t=P:problem=mixed beam	!	!	!	!	!	!	!	!	!	!	!	!	!	!
8AA/L	.	32aa\LLL	.	32aa\LLL	.	4.ryy	4.ryy	4.ryy	4.ryy	.	.	4.ryy	4.ryy	4.ryy
.	.	32gg#\	.	32gg#\	.	.	.	.	.	.	.	.	.	.
.	.	32ff#\	.	32ff#\	.	.	.	.	.	.	.	.	.	.
.	.	32ee\JJJ	.	32ee\JJJ	.	.	.	.	.	.	.	.	.	.
8A\	#4 2	16dd#X\LL	.	16dd#X\LL	.	.	.	.	.	.	.	.	.	.
.	.	16dd#\	.	16dd#\	.	.	.	.	.	.	.	.	.	.
8A\J	.	16dd#\	.	16dd#\	.	.	.	.	.	.	.	.	.	.
.	.	16dd#\JJ	.	16dd#\JJ	.	.	.	.	.	.	.	.	.	.
=64	=64	=64	=64	=64	=64	=64	=64	=64	=64	=64	=64	=64	=64	=64
8G#\L	6	16ee\LL	.	16ee\LL	.	4.ryy	4.ryy	4.ryy	4.ryy	.	.	4.ryy	4.ryy	4.ryy
.	.	16dd#X\JJ	.	16dd#X\JJ	.	.	.	.	.	.	.	.	.	.
8G#\	.	4ee\	.	4ee\	.	.	.	.	.	.	.	.	.	.
8G#\J	.	.	.	.	.	.	.	.	.	.	.	.	.	.
=65	=65	=65	=65	=65	=65	=65	=65	=65	=65	=65	=65	=65	=65	=65
8Gn\L	5 3	32ggn\LLL	.	32ggn\LLL	.	4.ryy	4.ryy	4.ryy	4.ryy	1.r	.	4.ryy	4.ryy	4.ryy
.	.	32ff#\	.	32ff#\	.	.	.	.	.	.	.	.	.	.
.	.	32ee\	.	32ee\	.	.	.	.	.	.	.	.	.	.
!	!	!LO:TX:a:t=P:problem=♮ above	!	!	!	!	!	!	!	!	!	!	!	!
.	.	32ddn\JJJ	.	32ddn\JJJ	.	.	.	.	.	.	.	.	.	.
8G\	#4 2	16cc#\LL	.	16cc#\LL	.	.	.	.	.	.	.	.	.	.
.	.	16cc#\	.	16cc#\	.	.	.	.	.	.	.	.	.	.
8G\J	.	16cc#\	.	16cc#\	.	.	.	.	.	.	.	.	.	.
.	.	16cc#\JJ	.	16cc#\JJ	.	.	.	.	.	.	.	.	.	.
=66	=66	=66	=66	=66	=66	=66	=66	=66	=66	=66	=66	=66	=66	=66
8F#\L	6	16dd\LL	.	16dd\LL	.	4.ryy	4.ryy	4.ryy	4.ryy	.	.	4.ryy	4.ryy	4.ryy
.	.	16cc#\JJ	.	16cc#\JJ	.	.	.	.	.	.	.	.	.	.
8F#\	.	4dd\	.	4dd\	.	.	.	.	.	.	.	.	.	.
8F#\J	.	.	.	.	.	.	.	.	.	.	.	.	.	.
=67	=67	=67	=67	=67	=67	=67	=67	=67	=67	=67	=67	=67	=67	=67
*	*	*	*	*Xtuplet	*	*	*	*	*	*	*	*	*	*
8D#X/	.	24ff#\LL	.	24ff#\LL	.	4.ryy	4.ryy	4.ryy	4.ryy	.	.	4.ryy	4.ryy	4.ryy
.	.	24ee\	.	24ee\	.	.	.	.	.	.	.	.	.	.
.	.	24dd\JJ	.	24dd\JJ	.	.	.	.	.	.	.	.	.	.
!	!	!LO:LB:g=original	!	!	!	!	!	!	!	!	!	!	!	!
8r	.	16b#X\LL	.	16b#X\LL	.	.	.	.	.	.	.	.	.	.
.	.	16b#\	.	16b#\	.	.	.	.	.	.	.	.	.	.
8r	.	16b#\	.	16b#\	.	.	.	.	.	.	.	.	.	.
.	.	16b#\JJ	.	16b#\JJ	.	.	.	.	.	.	.	.	.	.
*	*	*	*	*custos:ee	*	*	*	*	*	*	*	*	*	*
!	!	!	!	!LO:LB:g=original	!	!	!	!	!	!	!	!	!	!
=68	=68	=68	=68	=68	=68	=68	=68	=68	=68	=68	=68	=68	=68	=68
*	*	*	*	*tuplet	*	*	*	*	*	*	*	*	*	*
8C#/	.	24ee\LL	.	24ee\LL	.	4.ryy	4.ryy	4.ryy	4.ryy	.	.	4.ryy	4.ryy	4.ryy
.	.	24dd\	.	24dd\	.	.	.	.	.	.	.	.	.	.
.	.	24cc#\JJ	.	24cc#\JJ	.	.	.	.	.	.	.	.	.	.
8r	.	16a#X/LL	.	16a#X/LL	.	.	.	.	.	.	.	.	.	.
.	.	16a#/	.	16a#/	.	.	.	.	.	.	.	.	.	.
8r	.	16a#/	.	16a#/	.	.	.	.	.	.	.	.	.	.
.	.	16a#/JJ	.	16a#/JJ	.	.	.	.	.	.	.	.	.	.
=69	=69	=69	=69	=69	=69	=69	=69	=69	=69	=69	=69	=69	=69	=69
8BB/	.	24dd\LL	.	24dd\LL	.	4.ryy	4.ryy	4.ryy	4.ryy	1.r	.	4.ryy	4.ryy	4.ryy
.	.	24cc#\	.	24cc#\	.	.	.	.	.	.	.	.	.	.
.	.	24bn\JJ	.	24b\JJ	.	.	.	.	.	.	.	.	.	.
8r	.	16g#X/LL	.	16g#/LL	.	.	.	.	.	.	.	.	.	.
.	.	16g#/	.	16g#/	.	.	.	.	.	.	.	.	.	.
8r	.	16g#/	.	16g#/	.	.	.	.	.	.	.	.	.	.
.	.	16g#/JJ	.	16g#/JJ	.	.	.	.	.	.	.	.	.	.
=70	=70	=70	=70	=70	=70	=70	=70	=70	=70	=70	=70	=70	=70	=70
!LO:TX:t=P:problem=mixed beam	!	!	!	!	!	!	!	!	!	!	!	!	!	!
8AA/L	.	32an\LLL	.	32an\LLL	.	4.ryy	4.ryy	4.ryy	4.ryy	.	.	4.ryy	4.ryy	4.ryy
.	.	32ee\	.	32ee\	.	.	.	.	.	.	.	.	.	.
.	.	32gg#\	.	32gg#\	.	.	.	.	.	.	.	.	.	.
.	.	32aa\JJJ	.	32aa\JJJ	.	.	.	.	.	.	.	.	.	.
8A\	.	8cc#\L	.	8ee\L	.	.	.	.	.	.	.	.	.	.
8G#\J	6	8b\J	.	8dd\J	.	.	.	.	.	.	.	.	.	.
=71	=71	=71	=71	=71	=71	=71	=71	=71	=71	=71	=71	=71	=71	=71
8A\L	.	16a/LL	.	16cc#\LL	.	4.ryy	4.ryy	4.ryy	4.ryy	.	.	4.ryy	4.ryy	4.ryy
.	.	16b/JJ	.	16dd\JJ	.	.	.	.	.	.	.	.	.	.
8d\	.	8a/L	.	8cc#\L	.	.	.	.	.	.	.	.	.	.
8e\J	.	8g#/J	.	8b\J	.	.	.	.	.	.	.	.	.	.
=72	=72	=72	=72	=72	=72	=72	=72	=72	=72	=72	=72	=72	=72	=72
8A\L	.	16A/LL	.	16a/LL	.	4.ryy	4.ryy	4.ryy	4.ryy	.	.	4.ryy	4.ryy	4.ryy
.	.	16B/JJ	.	16d/JJ	.	.	.	.	.	.	.	.	.	.
8D\	.	8A/L	.	8c#/L	.	.	.	.	.	.	.	.	.	.
!	!	!LO:TX:t=P:problem=# below	!	!	!	!	!	!	!	!	!	!	!	!
8E\J	.	8G#X/J	.	8B/J	.	.	.	.	.	.	.	.	.	.
=73	=73	=73	=73	=73	=73	=73	=73	=73	=73	=73	=73	=73	=73	=73
4AA/	.	4A/	.	4A/	.	4.ryy	4.ryy	4.ryy	4.ryy	4.r	.	4.ryy	4.ryy	4.ryy
!	!	!LO:TX:b:i:t=Volti Subito	!	!LO:TX:b:i:t=Volti Seque Gloria	!	!	!	!	!	!	!	!	!	!
8r	.	8r	.	8r	.	.	.	.	.	.	.	.	.	.
==	==	==	==	==	==	==	==	==	==	==	==	==	==	==
*-	*-	*-	*-	*-	*-	*-	*-	*-	*-	*-	*-	*-	*-	*-
!!!system-decoration: s1[(g1)][(g2)][(g3)]s11
!!!RDF**kern: > = above
!!!RDF**dynam: p = "p."
!!!RDF**dynam: f = "f."
!!!ENC: Mateusz Solarz
!!!END: 2020-07-28
!!!ENC: Marta Lawrence
!!!END: 2022-03-06
!!!YEC: Copyright 2022 Narodowy Instytut Fryderyka Chopina (https://polishscores.org)
!!!YEM: License CC-BY-4.0 (https://creativecommons.org/licenses/by/4.0)
